X: 2
T: The Scotsman Over The Border
R: jig
M: 6/8
L: 1/8
K: Dmaj
DED FDF|AFA d2 A|~B3 BAB|dgf edB|ADD ~F3|AFA d2 A|~B3 AFA|dAF EAF|D E/E/D FDF|AFA dec|~B3 BAB|dg/f/e fdB|ADD FD/E/F|AFA dcA|BdB AFA|dAF EFA||dfa afa|bag fge|dfa afe|dcd ecA|dfa afa|bag fge| fdB AFA|dAF EFA|dfa a/f/g/a|bag fge|dfa afe|dB/c/d ecA|dfa afa|bag fge|fdB Afe|dAF EAF||


Tune 548	Setting 13511

